X:364
T:More The Merrier,The. (p)1696.PLFD.364
M:4/4
L:1/4
Q:1/2=80
S:Playford, Dancing Master,9th Ed,1st Supp.,1696.
O:England
H:1696.
Z:Chris Partington
K:Bb
G/A/|BA/G/^FD|FAAA/B/|cAd^F|G3:|
|:A|B>c B/c/d/e/|dBBF|B>c B/c/d/e/|dffg|
f/e/d/c/Bd|c/B/A/G/^FG/A/|BGd^F|G3:|
